public/svgs/bell-notification-flat.svg

<svg width="14" height="14" viewBox="0 0 14 14" fill="none" xmlns="http://www.w3.org/2000/svg">
<g clip-path="url(#clip0_52_1440)">
<path fill-rule="evenodd" clip-rule="evenodd" d="M6.99994 0.25C6.42573 0.249738 5.8571 0.362643 5.32654 0.582264C4.79599 0.801884 4.31392 1.12391 3.90789 1.52994C3.50186 1.93597 3.17983 2.41804 2.96021 2.9486C2.74059 3.47915 2.62768 4.04779 2.62794 4.622C2.62794 5.447 2.48294 6.075 2.27994 6.551C2.22394 6.684 2.10994 6.799 1.88994 6.941C1.79924 6.99662 1.70756 7.05063 1.61494 7.103L1.52194 7.157C1.37543 7.24075 1.23325 7.33187 1.09594 7.43C0.577944 7.813 0.387944 8.403 0.413944 8.935C0.438944 9.452 0.670944 9.992 1.10394 10.318C1.13187 10.3395 1.16091 10.3595 1.19094 10.378C1.26351 10.4245 1.339 10.4662 1.41694 10.503C1.61294 10.597 1.90994 10.711 2.34494 10.821C3.21494 11.041 4.65594 11.25 6.99994 11.25C9.34394 11.25 10.7849 11.041 11.6549 10.821C12.0899 10.711 12.3869 10.597 12.5829 10.503C12.6852 10.4547 12.7833 10.3979 12.8759 10.333L12.8959 10.318C13.3289 9.992 13.5609 9.452 13.5859 8.935C13.6119 8.403 13.4219 7.813 12.9039 7.43C12.7666 7.33187 12.6245 7.24075 12.4779 7.157L12.3849 7.103C12.2924 7.05075 12.201 6.99641 12.1109 6.94C11.8909 6.8 11.7759 6.684 11.7189 6.551C11.6755 6.44736 11.6365 6.34193 11.6019 6.235C11.4599 5.685 11.3719 5.165 11.3719 4.622C11.3722 4.04779 11.2593 3.47915 11.0397 2.9486C10.8201 2.41804 10.498 1.93597 10.092 1.52994C9.68597 1.12391 9.2039 0.801884 8.67335 0.582264C8.14279 0.362643 7.57416 0.249738 6.99994 0.25Z" fill="#007BFF"/>
<path fill-rule="evenodd" clip-rule="evenodd" d="M5.29583 12.135C5.36071 12.0585 5.44708 12.0033 5.54374 11.9766C5.64039 11.9498 5.74286 11.9528 5.83783 11.985C6.09183 12.071 6.46583 12.137 6.99983 12.137C7.53383 12.137 7.90783 12.071 8.16183 11.985C8.25685 11.9528 8.35936 11.9499 8.45604 11.9768C8.55271 12.0036 8.63907 12.0589 8.70389 12.1355C8.76872 12.2121 8.809 12.3064 8.81951 12.4062C8.83002 12.506 8.81027 12.6066 8.76283 12.695C8.59195 13.014 8.33774 13.2806 8.02727 13.4665C7.71679 13.6525 7.3617 13.7506 6.99983 13.7506C6.63795 13.7506 6.28286 13.6525 5.97239 13.4665C5.66191 13.2806 5.4077 13.014 5.23683 12.695C5.18928 12.6065 5.16947 12.5058 5.18 12.4059C5.19052 12.306 5.23088 12.2116 5.29583 12.135Z" fill="#2859C5"/>
</g>
<defs>
<clipPath id="clip0_52_1440">
<rect width="14" height="14" fill="white"/>
</clipPath>
</defs>
</svg>

<svg xmlns="http://www.w3.org/2000/svg" fill="none" viewBox="0 0 14 14" xmlns:xlink="http://www.w3.org/1999/xlink"><g fill-rule="evenodd" clip-path="url(#a)" clip-rule="evenodd"><path fill="#007bff" d="M7 .25a4.37 4.37 0 0 0-4.372 4.372c0 .825-.145 1.453-.348 1.929-.056.133-.17.248-.39.39q-.135.084-.275.162l-.093.054a5 5 0 0 0-.426.273c-.518.383-.708.973-.682 1.505.025.517.257 1.057.69 1.383q.042.032.087.06.11.07.226.125c.196.094.493.208.928.318.87.22 2.31.429 4.655.429 2.344 0 3.785-.209 4.655-.429.435-.11.732-.224.928-.318q.153-.072.293-.17l.02-.015c.433-.326.665-.866.69-1.383.026-.532-.164-1.122-.682-1.505a5 5 0 0 0-.426-.273l-.093-.054a7 7 0 0 1-.274-.163c-.22-.14-.335-.256-.392-.389a4 4 0 0 1-.117-.316c-.142-.55-.23-1.07-.23-1.613A4.37 4.37 0 0 0 7 .25"/><path fill="#2859c5" d="M5.296 12.135a.5.5 0 0 1 .542-.15c.254.086.628.152 1.162.152s.908-.066 1.162-.152a.5.5 0 0 1 .6.71 2 2 0 0 1-3.525 0 .5.5 0 0 1 .059-.56"/></g><defs><clipPath id="a"><path fill="#fff" d="M0 0h14v14H0z"/></clipPath></defs></svg>
